public/icons/question-circle-outline-lg.svg

<svg xmlns="http://www.w3.org/2000/svg" width="72" height="72" fill="none" viewBox="0 0 72 72">
  <circle cx="36" cy="36" r="29.5" stroke="currentColor"/>
  <circle cx="35.5" cy="49.5" r="1" fill="currentColor" stroke="currentColor" transform="rotate(-180 35.5 49.5)"/>
  <path stroke="currentColor" d="M28.5 26.4093c.735-1.5628 2.6007-3.5163 3.788-4.186C32.6272 22 33.136 22 33.4187 22h6.6149c.3957 0 .9046.0558 1.3003.2791.9612.5581 2.3746 2.0093 2.94 3.1256.1696.3906.2261.8372.2261 1.2279l-.0565 3.7953c0 1.3954-.8481 2.5674-1.9788 3.1814l-3.6749 2.0651c-2.0354 1.0605-3.3357 2.5675-3.3357 4.6884V44"/>
</svg>

<svg role="img" width="72" height="72" viewBox="0 0 72 72" fill="none" xmlns="http://www.w3.org/2000/svg">
<circle cx="36" cy="36" r="31.5" stroke="currentColor"/>
<circle cx="35.5" cy="49.5" r="1" transform="rotate(-180 35.5 49.5)" fill="currentColor" stroke="currentColor"/>
<path d="M28.5 26.4093C29.235 24.8465 31.1007 22.893 32.288 22.2233C32.6272 22 33.136 22 33.4187 22H40.0336C40.4293 22 40.9382 22.0558 41.3339 22.2791C42.2951 22.8372 43.7085 24.2884 44.2739 25.4047C44.4435 25.7953 44.5 26.2419 44.5 26.6326L44.4435 30.4279C44.4435 31.8233 43.5954 32.9953 42.4647 33.6093L38.7898 35.6744C36.7544 36.7349 35.4541 38.2419 35.4541 40.3628V44" stroke="currentColor"/>
</svg>
